X: 181
T:Beati omnes
N: Derived from Jos1503-Beati_omnes_qui_timent_Dominum.krn
C: Josquin des Prez
%%abc-version 2.0
%%abcx-abcm2ps-target-version 5.9.1 (29 Sep 2008)
%%abc-creator hum2abc beta
%%abcx-conversion-date 2019/02/12 16:15:46
%%abc-edited-by Jesse Rodin
%%abc-edited-by Victoria Chang
%%abcx-initial-encoding-date 2011/03/21/ [sic]
%%humdrum-veritas 2388954264
%%humdrum-veritas-data 1991753443
%%linebreak <none>
%%barnumbers 0
L: 1/4
M: 2/1
Q: 1/2=120
V: 1 clef=treble
V: 2 clef=treble-8
V: 3 clef=treble-8
V: 4 clef=treble-8
V: 5 clef=bass
V: 6 clef=bass
K: C
[V:1] z8 | 
[V:2] z8 | 
[V:3] z8 | 
[V:4] E8 | 
[V:5] z8 | 
[V:6] z8 | 
[V:1] z8 | 
[V:2] z8 | 
[V:3] z8 | 
[V:4] G4G4 | 
[V:5] z8 | 
[V:6] z8 | 
[V:1] z8 | 
[V:2] z8 | 
[V:3] z8 | 
[V:4] A4E4- | 
[V:5] z8 | 
[V:6] A,,8 | 
[V:1] z8 | 
[V:2] z8 | 
[V:3] z8 | 
[V:4] E4c4 | 
[V:5] z8 | 
[V:6] C,4C,4 | 
[V:1] z8 | 
[V:2] z8 | 
[V:3] z8 | 
[V:4] B2A2A2c2- | 
[V:5] z8 | 
[V:6] D,4A,,4- | 
[V:1] z8 | 
[V:2] z8 | 
[V:3] z8 | 
[V:4] cBAGA4 | 
[V:5] z8 | 
[V:6] A,,4F,4 | 
[V:1] z8 | 
[V:2] z8 | 
[V:3] z8 | 
[V:4] G2A3GFE | 
[V:5] z8 | 
[V:6] E,2D,4F,2- | 
[V:1] z8 | 
[V:2] z8 | 
[V:3] z8 | 
[V:4] DCc4B2 | 
[V:5] z8 | 
[V:6] F,E,D,C,D,2D,2 | 
[V:1] E8 | 
[V:2] z8 | 
[V:3] z8 | 
[V:4] c8- | 
[V:5] z8 | 
[V:6] C,8- | 
[V:1] G4G4 | 
[V:2] z8 | 
[V:3] z8 | 
[V:4] c8 | 
[V:5] z8 | 
[V:6] C,8 | 
[V:1] A4E4- | 
[V:2] A8 | 
[V:3] z8 | 
[V:4] z8 | 
[V:5] z8 | 
[V:6] z8 | 
[V:1] E4c4 | 
[V:2] c4c4 | 
[V:3] z8 | 
[V:4] z8 | 
[V:5] z8 | 
[V:6] z8 | 
[V:1] B2A4c2- | 
[V:2] d4A4- | 
[V:3] z8 | 
[V:4] z8 | 
[V:5] z8 | 
[V:6] z8 | 
[V:1] cBAGA4 | 
[V:2] A4f4 | 
[V:3] z8 | 
[V:4] z8 | 
[V:5] z8 | 
[V:6] z8 | 
[V:1] G2A3GFE | 
[V:2] e2d4f2- | 
[V:3] z8 | 
[V:4] z8 | 
[V:5] z8 | 
[V:6] z8 | 
[V:1] DCc2cBBA/B/ | 
[V:2] fedcd4 | 
[V:3] z8 | 
[V:4] z2C2F2G2 | 
[V:5] z8 | 
[V:6] z8 | 
[V:1] c8- | 
[V:2] c4e4 | 
[V:3] c8 | 
[V:4] A4E4 | 
[V:5] z8 | 
[V:6] A,,8 | 
[V:1] c8 | 
[V:2] e2e2e4 | 
[V:3] c4c4 | 
[V:4] E4E4 | 
[V:5] G,8 | 
[V:6] C,4C,4 | 
[V:1] z8 | 
[V:2] z2e2e2c2 | 
[V:3] c8 | 
[V:4] E8 | 
[V:5] G,4G,4 | 
[V:6] C,6C,2 | 
[V:1] z8 | 
[V:2] d8- | 
[V:3] B8 | 
[V:4] D8 | 
[V:5] G,8 | 
[V:6] G,,4G,,4 | 
[V:1] z8 | 
[V:2] d8 | 
[V:3] A8- | 
[V:4] z4A4 | 
[V:5] F,8 | 
[V:6] D,8 | 
[V:1] z4A4 | 
[V:2] e6dc | 
[V:3] A8 | 
[V:4] c6c2 | 
[V:5] E,8- | 
[V:6] A,,8 | 
[V:1] c6c2 | 
[V:2] c8 | 
[V:3] z8 | 
[V:4] c4c4 | 
[V:5] E,8 | 
[V:6] z4A,,4 | 
[V:1] c4c4 | 
[V:2] z4e4 | 
[V:3] z8 | 
[V:4] G4c4- | 
[V:5] z8 | 
[V:6] C,4C,2C,2- | 
[V:1] G2G2d4 | 
[V:2] g4g4 | 
[V:3] z8 | 
[V:4] c4B4 | 
[V:5] z8 | 
[V:6] C,2C,2G,,2G,,2 | 
[V:1] A8 | 
[V:2] f2f2e2e2 | 
[V:3] z8 | 
[V:4] A8 | 
[V:5] z8 | 
[V:6] D,4A,,4- | 
[V:1] c6B2 | 
[V:2] A4e3d | 
[V:3] z8 | 
[V:4] z2A2A2G2 | 
[V:5] z8 | 
[V:6] A,,4z4 | 
[V:1] A4G2F2- | 
[V:2] f4e2d2- | 
[V:3] z8 | 
[V:4] F3EC2D2- | 
[V:5] z8 | 
[V:6] z8 | 
[V:1] FEDCD4 | 
[V:2] dcc4B2 | 
[V:3] z8 | 
[V:4] D2E2F2G2 | 
[V:5] z8 | 
[V:6] z8 | 
[V:1] C8 | 
[V:2] c8 | 
[V:3] z8 | 
[V:4] C4z2E2 | 
[V:5] z8 | 
[V:6] A,,4C,4- | 
[V:1] z8 | 
[V:2] z8 | 
[V:3] z8 | 
[V:4] G6A2 | 
[V:5] z8 | 
[V:6] C,2D,2E,4- | 
[V:1] z8 | 
[V:2] z8 | 
[V:3] z8 | 
[V:4] B6AG | 
[V:5] z8 | 
[V:6] E,4E,4 | 
[V:1] z8 | 
[V:2] z8 | 
[V:3] z8 | 
[V:4] G3BA2c2 | 
[V:5] z8 | 
[V:6] E,2E,2F,3E, | 
[V:1] z8 | 
[V:2] z8 | 
[V:3] z8 | 
[V:4] B2A4^G2 | 
[V:5] z8 | 
[V:6] D,2C,2B,,4 | 
[V:1] A4G2G2 | 
[V:2] z4e4 | 
[V:3] c8 | 
[V:4] A4E4- | 
[V:5] z8 | 
[V:6] A,,4C,4 | 
[V:1] E2E2G2G2 | 
[V:2] g2g2e2e2 | 
[V:3] c8 | 
[V:4] E2E4DC | 
[V:5] G,8 | 
[V:6] C,2C,4B,,A,, | 
[V:1] G2D2G4 | 
[V:2] g2g2d2d2 | 
[V:3] B8 | 
[V:4] D8 | 
[V:5] G,8 | 
[V:6] G,,8 | 
[V:1] C4z2c2- | 
[V:2] f4c4 | 
[V:3] A8 | 
[V:4] z8 | 
[V:5] F,8 | 
[V:6] z8 | 
[V:1] c2c2c2c2 | 
[V:2] z2e4e2 | 
[V:3] G8- | 
[V:4] z8 | 
[V:5] E,8 | 
[V:6] C,4C,4 | 
[V:1] B2d3cB2 | 
[V:2] g2g2d4 | 
[V:3] G8 | 
[V:4] d4B2d2- | 
[V:5] D,8- | 
[V:6] G,,2G,,2G,,4 | 
[V:1] A2G4^F2 | 
[V:2] d2d2d4 | 
[V:3] z8 | 
[V:4] dcB2A4 | 
[V:5] D,8 | 
[V:6] D,2G,,2D,4 | 
[V:1] G4z2G2- | 
[V:2] B2d4d2 | 
[V:3] z8 | 
[V:4] G8 | 
[V:5] z8 | 
[V:6] G,,8 | 
[V:1] G2G2A2F2 | 
[V:2] efgef2d2 | 
[V:3] z8 | 
[V:4] z8 | 
[V:5] z8 | 
[V:6] z8 | 
[V:1] E8 | 
[V:2] c8 | 
[V:3] z8 | 
[V:4] z2G4E2 | 
[V:5] z8 | 
[V:6] z2C,4C,2 | 
[V:1] z4z2c2- | 
[V:2] z4c3d | 
[V:3] z8 | 
[V:4] F2G2A4- | 
[V:5] z8 | 
[V:6] D,2B,,2A,,4- | 
[V:1] c2c2d2B2 | 
[V:2] e2f2d2e2 | 
[V:3] z8 | 
[V:4] A4z4 | 
[V:5] z8 | 
[V:6] A,,4z4 | 
[V:1] A2c2B2A2- | 
[V:2] f2e2d2f2- | 
[V:3] z8 | 
[V:4] z8 | 
[V:5] z8 | 
[V:6] z8 | 
[V:1] AGFEF4 | 
[V:2] fee4d2 | 
[V:3] z8 | 
[V:4] z8 | 
[V:5] z8 | 
[V:6] z8 | 
[V:1] E8 | 
[V:2] e8 | 
[V:3] z8 | 
[V:4] z2c4c2 | 
[V:5] z8 | 
[V:6] A,,4A,,4 | 
[V:1] z2G2A2c2- | 
[V:2] z4c4 | 
[V:3] z8 | 
[V:4] d2B2A4 | 
[V:5] z8 | 
[V:6] D,2E,2F,4- | 
[V:1] cBA2G2F2- | 
[V:2] A4B2c2- | 
[V:3] z8 | 
[V:4] c4B2A2- | 
[V:5] z8 | 
[V:6] F,4z4 | 
[V:1] FEE4D2 | 
[V:2] c2BAd4 | 
[V:3] z4A4 | 
[V:4] AGFEF4 | 
[V:5] z8 | 
[V:6] D,8 | 
[V:1] E8 | 
[V:2] G4z4 | 
[V:3] c8 | 
[V:4] E4C4 | 
[V:5] z4E,4 | 
[V:6] C,3B,,A,,4 | 
[V:1] z4G3G | 
[V:2] z8 | 
[V:3] B8 | 
[V:4] z8 | 
[V:5] G,8 | 
[V:6] G,,8 | 
[V:1] D3DF3E | 
[V:2] d3dA3A | 
[V:3] A8 | 
[V:4] z8 | 
[V:5] F,8 | 
[V:6] D,6D,2 | 
[V:1] C4z2G2- | 
[V:2] c3cG4 | 
[V:3] z8 | 
[V:4] A3AE3E | 
[V:5] E,8 | 
[V:6] A,,3A,,C,3B,, | 
[V:1] G2G2F3D | 
[V:2] d8 | 
[V:3] z4A4 | 
[V:4] G3FDEF2 | 
[V:5] z8 | 
[V:6] G,,4D,4 | 
[V:1] E2D2A4 | 
[V:2] G4A4 | 
[V:3] c8 | 
[V:4] z2D2D2C2 | 
[V:5] z4E,4 | 
[V:6] C,3B,,A,,4 | 
[V:1] z2d4d2- | 
[V:2] B4z2d2 | 
[V:3] B8 | 
[V:4] D4d4 | 
[V:5] G,8 | 
[V:6] G,,4G,,4 | 
[V:1] d2cBA3B | 
[V:2] f6d2 | 
[V:3] A8- | 
[V:4] d4d4 | 
[V:5] F,8 | 
[V:6] D,4D,4 | 
[V:1] c4c4 | 
[V:2] e8- | 
[V:3] A8 | 
[V:4] c8 | 
[V:5] E,8- | 
[V:6] A,,8 | 
[V:1] G4z4 | 
[V:2] e8 | 
[V:3] z8 | 
[V:4] z4B4 | 
[V:5] E,8 | 
[V:6] z8 | 
[V:1] B4B4 | 
[V:2] z8 | 
[V:3] z8 | 
[V:4] B4B4 | 
[V:5] z8 | 
[V:6] z4E,4 | 
[V:1] B4z2B2 | 
[V:2] e4e4 | 
[V:3] z8 | 
[V:4] z2B2B2B2 | 
[V:5] z8 | 
[V:6] E,4E,4 | 
[V:1] B2B2G4 | 
[V:2] e4z2e2 | 
[V:3] z8 | 
[V:4] G4G4 | 
[V:5] z8 | 
[V:6] z2E,2E,2E,2 | 
[V:1] G4c4- | 
[V:2] e2e2c4 | 
[V:3] z8 | 
[V:4] c8 | 
[V:5] z8 | 
[V:6] C,4C,4 | 
[V:1] c4A4 | 
[V:2] c4f4- | 
[V:3] z8 | 
[V:4] A4d4 | 
[V:5] z8 | 
[V:6] F,8 | 
[V:1] d4d2c2 | 
[V:2] f4d4 | 
[V:3] z8 | 
[V:4] d2c2B2A2 | 
[V:5] z8 | 
[V:6] D,4G,4 | 
[V:1] B2A2G4 | 
[V:2] g4g2f2 | 
[V:3] z8 | 
[V:4] G8- | 
[V:5] z8 | 
[V:6] G,2F,2E,2D,2 | 
[V:1] G8 | 
[V:2] e2d2c4 | 
[V:3] c8 | 
[V:4] G8 | 
[V:5] z8 | 
[V:6] C,8- | 
[V:1] z8 | 
[V:2] z4c4 | 
[V:3] c4c4 | 
[V:4] z8 | 
[V:5] G,8 | 
[V:6] C,8- | 
[V:1] z4G4 | 
[V:2] g4g4 | 
[V:3] c8 | 
[V:4] z8 | 
[V:5] G,4G,4 | 
[V:6] C,8 | 
[V:1] d4d4 | 
[V:2] d4d2d2 | 
[V:3] B8 | 
[V:4] z8 | 
[V:5] G,8 | 
[V:6] z4G,,4 | 
[V:1] A4A2A2 | 
[V:2] f4f4 | 
[V:3] A8 | 
[V:4] d4d2d2 | 
[V:5] F,8 | 
[V:6] D,4D,4 | 
[V:1] c8- | 
[V:2] c6d2 | 
[V:3] A8 | 
[V:4] e4e2d2 | 
[V:5] E,8 | 
[V:6] A,,4A,,2A,,2 | 
[V:1] c4c4 | 
[V:2] e8- | 
[V:3] z8 | 
[V:4] c2B2A4 | 
[V:5] E,8 | 
[V:6] C,3D,E,4- | 
[V:1] B8 | 
[V:2] e8- | 
[V:3] z8 | 
[V:4] z2G3ABG | 
[V:5] z8 | 
[V:6] E,8 | 
[V:1] z8 | 
[V:2] e8 | 
[V:3] z8 | 
[V:4] ABc4B2 | 
[V:5] z8 | 
[V:6] z2A,4G,2 | 
[V:1] z2G2A2A2 | 
[V:2] e4d4 | 
[V:3] z8 | 
[V:4] c2B3AA2 | 
[V:5] z8 | 
[V:6] A,2E,2F,4 | 
[V:1] G4c4 | 
[V:2] e8 | 
[V:3] z8 | 
[V:4] B2G2A4 | 
[V:5] z8 | 
[V:6] E,4z2A,,2 | 
[V:1] B2G2A2A2 | 
[V:2] z8 | 
[V:3] z8 | 
[V:4] G2c3Acd | 
[V:5] z8 | 
[V:6] E,4F,4 | 
[V:1] G4c4- | 
[V:2] g4g4- | 
[V:3] c8 | 
[V:4] e4e4 | 
[V:5] z8 | 
[V:6] C,4C,4 | 
[V:1] c2c2c2c2 | 
[V:2] g2g2g4 | 
[V:3] c8 | 
[V:4] e4e4 | 
[V:5] G,8 | 
[V:6] C,2C,2C,2C,2 | 
[V:1] d4B4 | 
[V:2] g4d2d2 | 
[V:3] B8 | 
[V:4] d4z4 | 
[V:5] G,8 | 
[V:6] G,,8 | 
[V:1] c4A4 | 
[V:2] f4f4 | 
[V:3] A8 | 
[V:4] z2c4d2 | 
[V:5] F,8 | 
[V:6] z8 | 
[V:1] z4z2c2 | 
[V:2] g8- | 
[V:3] G8- | 
[V:4] e4c4 | 
[V:5] E,8 | 
[V:6] z8 | 
[V:1] BAd3cBA | 
[V:2] g4g4- | 
[V:3] G8 | 
[V:4] d4B4 | 
[V:5] D,8- | 
[V:6] G,,6G,,2 | 
[V:1] G2c4B2 | 
[V:2] g2g2g2g2 | 
[V:3] z8 | 
[V:4] d8 | 
[V:5] D,8 | 
[V:6] G,,4G,,4 | 
[V:1] c4z4 | 
[V:2] e6d2 | 
[V:3] z8 | 
[V:4] c6B2 | 
[V:5] z8 | 
[V:6] C,4A,,2D,2 | 
[V:1] z4A4 | 
[V:2] edcBc4 | 
[V:3] z8 | 
[V:4] A2G3^F^F2 | 
[V:5] z8 | 
[V:6] C,2B,,2A,,4 | 
[V:1] B2B2G4 | 
[V:2] B3cdGg2- | 
[V:3] z8 | 
[V:4] G4z2G2 | 
[V:5] z8 | 
[V:6] G,,8 | 
[V:1] c2c2B4 | 
[V:2] g2^f2g4 | 
[V:3] z8 | 
[V:4] A2A2G4- | 
[V:5] z8 | 
[V:6] z4G,,4 | 
[V:1] z2G4G2 | 
[V:2] z2e2e2e2 | 
[V:3] z8 | 
[V:4] G4E2E2 | 
[V:5] z8 | 
[V:6] C,8 | 
[V:1] F4D2D2 | 
[V:2] A4f2f2 | 
[V:3] z4A4 | 
[V:4] D2F4F2 | 
[V:5] z8 | 
[V:6] D,8 | 
[V:1] E4C4 | 
[V:2] e8 | 
[V:3] c8 | 
[V:4] G4A4 | 
[V:5] z4E,4 | 
[V:6] C,4A,,2A,,2 | 
[V:1] G6G2 | 
[V:2] z4d4 | 
[V:3] B8 | 
[V:4] d8- | 
[V:5] G,8 | 
[V:6] G,,8 | 
[V:1] A4D4 | 
[V:2] f4f4 | 
[V:3] A8 | 
[V:4] d8 | 
[V:5] F,8 | 
[V:6] z2D,4D,2 | 
[V:1] E4E4 | 
[V:2] c4z2A2- | 
[V:3] z8 | 
[V:4] G4A4 | 
[V:5] E,8 | 
[V:6] C,4A,,2C,2 | 
[V:1] D4z2A2 | 
[V:2] A2G2c3d | 
[V:3] z4A4 | 
[V:4] D4z4 | 
[V:5] z8 | 
[V:6] B,,4A,,4- | 
[V:1] A2c3BGA | 
[V:2] e4z2g2- | 
[V:3] c8 | 
[V:4] A4G4 | 
[V:5] z4E,4 | 
[V:6] A,,4C,4 | 
[V:1] B2A4G2 | 
[V:2] g2g2d2d2 | 
[V:3] B8 | 
[V:4] d8- | 
[V:5] G,8 | 
[V:6] G,,8 | 
[V:1] A8- | 
[V:2] f4f4 | 
[V:3] A8- | 
[V:4] d4d4 | 
[V:5] F,8 | 
[V:6] D,4D,4 | 
[V:1] A4c4- | 
[V:2] c6d2 | 
[V:3] A8- | 
[V:4] e6d2 | 
[V:5] E,8- | 
[V:6] A,,8 | 
[V:1] c2B2A4 | 
[V:2] e8- | 
[V:3] A8 | 
[V:4] c4c4 | 
[V:5] E,8- | 
[V:6] A,,8 | 
[V:1] G8 |]  
[V:2] e8 |]  
[V:3] B8 |]  
[V:4] B8 |]  
[V:5] E,8 |]  
[V:6] E,8 |]  



